material/.icons/material/clipboard-text-play.svg

<svg xmlns="http://www.w3.org/2000/svg" viewBox="0 0 24 24"><path d="M19 3a2 2 0 012 2v8.34a5.92 5.92 0 00-2-.34c-3.32 0-6 2.69-6 6 0 .68.11 1.36.34 2H5a2 2 0 01-2-2V5a2 2 0 012-2h4.18c.32-.84.96-1.5 1.82-1.8 1.53-.56 3.25.24 3.82 1.8H19m-7 0a1 1 0 00-1 1 1 1 0 001 1 1 1 0 001-1 1 1 0 00-1-1m-1 14v-2H7v2h4m2-4v-2H7v2h6m4-4V7H7v2h10m0 7l5 3-5 3v-6z"/></svg>

<?xml version="1.0" encoding="UTF-8"?><!DOCTYPE svg PUBLIC "-//W3C//DTD SVG 1.1//EN" "http://www.w3.org/Graphics/SVG/1.1/DTD/svg11.dtd"><svg xmlns="http://www.w3.org/2000/svg" xmlns:xlink="http://www.w3.org/1999/xlink" version="1.1" id="mdi-clipboard-text-play" width="24" height="24" viewBox="0 0 24 24"><path d="M19,3A2,2 0 0,1 21,5V13.34C20.36,13.11 19.68,13 19,13C15.68,13 13,15.69 13,19C13,19.68 13.11,20.36 13.34,21H5A2,2 0 0,1 3,19V5A2,2 0 0,1 5,3H9.18C9.5,2.16 10.14,1.5 11,1.2C12.53,0.64 14.25,1.44 14.82,3H19M12,3A1,1 0 0,0 11,4A1,1 0 0,0 12,5A1,1 0 0,0 13,4A1,1 0 0,0 12,3M11,17V15H7V17H11M13,13V11H7V13H13M17,9V7H7V9H17M17,16L22,19L17,22V16Z" /></svg>
